X:1
T:Make Me Understand
T:Make Me Understand
T:Katherine Agnes May Kelly
T:Katherine Agnes May Kelly  (1869-1942)
C:Katherine Agnes May Kelly
%%score ( 1 2 ) ( 3 4 )
L:1/8
Q:1/4=135
M:6/4
K:F
V:1 treble 
V:2 treble 
V:3 bass 
V:4 bass 
V:1
 C2 | C4 D2 F4 D2 | [B,-F]6 [B,E]4 (EE) | [CF]4 F2 [^FB]4 [FA]2 | [DG]6- [DG]4 (GG) | G4 G2 A4 B2 | %6
w: 1.~Give|me a sight, O|Sav- Of~Thy won- *|drous love to me,|Of~the * love *|that brought Thee down|
w: 2.~Was|it the nails, O|Sav- That bound *|Thee to the tree?|Nay, * ’twas *|Thine ev- er- last-|
w: 3.~O|won- der of all|won- That through *|Thy death for me|My * o- *|pen sins, my sec-|
w: 4.~Then|melt my heart, O|Sav- Bend me, *|yea, break me down|Un- * til *|I own Thee Con-|
 [Fc]4 [CA]2 [DF]4 [CE]2 | D4 E2 F4 D2 | [B,G]6- !fermata![B,G]4 ||"^Refrain" [Cc]2 | %10
w: to earth To die|on Cal- va- ry.|||
w: ing love, Thy love|for me, for me.|O *|make|
w: ret sins, Can all|for- giv- en be.|||
w: quer- or, And Lord|and Sov- ereign crown.|||
 [CA]4 [CG]2 [CF]4 [CG]2 | [CF]6 [CE]4 [CE]2 | [CE]4 [EB]2 [EA]4 [EG]2 | [Fc]6- [Fc]4 [Fc][Fc] | %14
w: ||||
w: me un- der- stand|it! Help me|to take it in!|What * it meant|
w: ||||
w: ||||
 [_Ed]4 [Ec]2 [EF]4 [EF]2 | [_Ec]4 [DB]2 !fermata![B,D]4 [B,D]2 | %16
w: ||
w: to Thee, the Ho-|ly One, To bear|
w: ||
w: ||
 ([A,C]2 [CB]2) [CA]2 [EA]4 [EG]2 | [CF]6- !fermata![CF]4 x2 |] x10 |] %19
w: |||
w: a- * way my sin.|||
w: |||
w: |||
V:2
 C2 | A,12 | x10 B,2 | x4 ^F2 x6 | x10 D2 | E12 | x12 | =B,12 | x10 || x2 | x12 | x12 | x12 | x12 | %14
 x12 | x12 | x12 | x12 |] x10 |] %19
V:3
 C,2 | C,4 D,2 F,4 D,2 | [G,,-F,]6 [G,,E,]4 [G,,G,]2 | [A,,F,]4 [A,,C]2 [D,C]4 [D,C]2 | %4
 ([G,-C]6 [G,B,]4) [G,B,]2 | B,4 B,2 A,4 G,2 | [F,A,]4 [F,A,]2 [D,A,]4 [D,F,]2 | F,4 E,2 D,4 F,2 | %8
 ([C,,-F,]6 !fermata![C,,E,]4) || [E,B,]2 | [F,A,]4 [F,B,]2 [F,A,]4 [F,B,]2 | %11
 [C,A,]6 [C,G,]4 [C,G,]2 | [C,G,]4 [C,G,]2 [C,C]4 [B,C]2 | [A,C]6- [A,C]4 [F,A,][F,A,] | %14
 [F,G,]4 [F,G,]2 x6 | [F,A,]4 [F,A,]2 x6 | [B,,C]4 [B,,B,]2 !fermata![B,,F,]4 [G,,F,]2 | %17
 (F,2 E,2) [C,F,]2 [C,B,]4 [C,B,]2 |] [F,A,]6- !fermata![F,A,]4 |] %19
V:4
 C,2 | F,,12 | x12 | x12 | x12 | C,12 | x12 | G,,12 | x10 || x2 | x12 | x12 | x12 | x12 | x12 | %15
 x12 | x12 | C,4 x8 |] x10 |] %19

